X:1
T:Miss Heron
T:Miss Heron
T:Nathaniel Gow
C:Nathaniel Gow
L:1/8
Q:1/8=232
M:4/4
K:F
V:1 treble 
V:1
|: f | cF AF EG GB | A/B/c fc d3 f | cf cA BG Ec | AF EC F3 f | cF AF EG GB | A/B/c fc d3 f | %7
 cf cA BG Ec | AF EC F3 f | a/g/f/e/ fd ef gb | af cA d3 f | cA fF EG GB | AF DC F3 f | %13
 a/g/f/e/ fd ef gb | a/g/f/e/ fc d3 f | ca cA BG Ec | AF EC F3 :| %17

